assets/icons/qvision/plagiarism.svg

<svg xmlns="http://www.w3.org/2000/svg" enable-background="new 0 0 24 24" height="24" viewBox="0 0 24 24" width="24"><g><rect fill="none" height="24" width="24"/></g><g><g><path d="M14,2H6C4.9,2,4,2.9,4,4v16c0,1.1,0.89,2,1.99,2H18c1.1,0,2-0.9,2-2V8L14,2z M15.04,19.45l-1.88-1.88 c-1.33,0.71-3.01,0.53-4.13-0.59c-1.37-1.37-1.37-3.58,0-4.95c1.37-1.37,3.58-1.37,4.95,0c1.12,1.12,1.31,2.8,0.59,4.13l1.88,1.88 L15.04,19.45z M13,9V3.5L18.5,9H13z"/><circle cx="11.5" cy="14.5" r="1.5"/></g></g></svg>

<svg width="24" height="24" viewBox="0 0 24 24" fill="none" xmlns="http://www.w3.org/2000/svg">
<g clip-path="url(#clip0_147_4561)">
<path d="M14 2H6C4.9 2 4 2.9 4 4V20C4 21.1 4.89 22 5.99 22H18C19.1 22 20 21.1 20 20V8L14 2ZM15.04 19.45L13.16 17.57C11.83 18.28 10.15 18.1 9.03 16.98C7.66 15.61 7.66 13.4 9.03 12.03C10.4 10.66 12.61 10.66 13.98 12.03C15.1 13.15 15.29 14.83 14.57 16.16L16.45 18.04L15.04 19.45ZM13 9V3.5L18.5 9H13Z" fill="#323232"/>
<path d="M11.5 16C12.3284 16 13 15.3284 13 14.5C13 13.6716 12.3284 13 11.5 13C10.6716 13 10 13.6716 10 14.5C10 15.3284 10.6716 16 11.5 16Z" fill="#323232"/>
</g>
<defs>
<clipPath id="clip0_147_4561">
<rect width="24" height="24" fill="white"/>
</clipPath>
</defs>
</svg>
